svgs/duotone/address-card.svg

<svg xmlns="http://www.w3.org/2000/svg" viewBox="0 0 576 512"><!-- Font Awesome Pro 6.0.0-alpha2 by @fontawesome - https://fontawesome.com License - https://fontawesome.com/license (Commercial License) --><defs><style>.fa-secondary{opacity:.4}</style></defs><path d="M512 32H64C28.654 32 0 60.654 0 96V416C0 451.346 28.654 480 64 480H512C547.346 480 576 451.346 576 416V96C576 60.654 547.346 32 512 32ZM176 128C211.346 128 240 156.654 240 192S211.346 256 176 256S112 227.346 112 192S140.654 128 176 128ZM272 384H80C71.164 384 64 376.836 64 368C64 323.816 99.816 288 144 288H208C252.184 288 288 323.816 288 368C288 376.836 280.836 384 272 384ZM496 320H368C359.164 320 352 312.836 352 304S359.164 288 368 288H496C504.836 288 512 295.164 512 304S504.836 320 496 320ZM496 256H368C359.164 256 352 248.836 352 240S359.164 224 368 224H496C504.836 224 512 231.164 512 240S504.836 256 496 256ZM496 192H368C359.164 192 352 184.836 352 176S359.164 160 368 160H496C504.836 160 512 167.164 512 176S504.836 192 496 192Z" class="fa-secondary"/><path d="M176 256C211.346 256 240 227.346 240 192S211.346 128 176 128S112 156.654 112 192S140.654 256 176 256ZM208 288H144C99.816 288 64 323.816 64 368C64 376.836 71.164 384 80 384H272C280.836 384 288 376.836 288 368C288 323.816 252.184 288 208 288Z" class="fa-primary"/></svg>

<svg xmlns="http://www.w3.org/2000/svg" viewBox="0 0 576 512"><!--! Font Awesome Pro 6.3.0 by @fontawesome - https://fontawesome.com License - https://fontawesome.com/license (Commercial License) Copyright 2023 Fonticons, Inc. --><defs><style>.fa-secondary{opacity:.4}</style></defs><path class="fa-primary" d="M176 256c35.35 0 64-28.65 64-64s-28.65-64-64-64s-64 28.65-64 64S140.7 256 176 256zM208 288h-64C99.82 288 64 323.8 64 368C64 376.8 71.16 384 80 384h192c8.836 0 16-7.164 16-16C288 323.8 252.2 288 208 288z"/><path class="fa-secondary" d="M512 32H64C28.65 32 0 60.65 0 96v320c0 35.35 28.65 64 64 64h448c35.35 0 64-28.65 64-64V96C576 60.65 547.3 32 512 32zM176 128c35.35 0 64 28.65 64 64s-28.65 64-64 64s-64-28.65-64-64S140.7 128 176 128zM272 384h-192C71.16 384 64 376.8 64 368C64 323.8 99.82 288 144 288h64c44.18 0 80 35.82 80 80C288 376.8 280.8 384 272 384zM496 320h-128C359.2 320 352 312.8 352 304S359.2 288 368 288h128C504.8 288 512 295.2 512 304S504.8 320 496 320zM496 256h-128C359.2 256 352 248.8 352 240S359.2 224 368 224h128C504.8 224 512 231.2 512 240S504.8 256 496 256zM496 192h-128C359.2 192 352 184.8 352 176S359.2 160 368 160h128C504.8 160 512 167.2 512 176S504.8 192 496 192z"/></svg>
